X:1
T:Title
%%score { ( 1 4 ) | ( 2 3 ) }
L:1/8
M:4/4
K:F
V:1 treble nm="Grand Piano"
V:4 treble 
V:2 bass 
V:3 bass 
V:1
 z4 z2[Q:1/4=100] F>G | A2 A>A A2 GF | D2 [DF]>D C2 F>A | c2 c>c d2 cA | [EG]2 [Ec]>[Fc] [Ec]2 AB | %5
 c2 A>[EG] [DF]2 [CF]>[CE] | [B,D]2 [DF]>[DF] C2 CC | F2 FF A<.c [CFA]2 | [B,EG]2 F>F F2 z2 | %9
 c2 [Ec]>[Gc] c2 Ac | [Fd]2 c>c c4 | [Fd]2 [Fd]>[Fd] [Fc]2 [FA]2 | z4 [Ec]4 | c2 c>c A4 | %14
 [CG][CF]DF C2 z C | F2 FF A<.c A2 |[M:3/4] [EG]2 F>F F2 |] %17
V:2
 z4 z2 [F,A,]>[F,B,F] | [F,CF]2 [F,CF]>[F,CF] [F,CF]2 [F,C]-[F,A,C] | z4 z2 [A,C]2 | %3
 [F,A,C]2 [F,A,F]>[F,A,F] [F,B,F]2 [F,A,F][F,CF] | z4 z2 [F,F]2 | %5
 [F,A,F]2 [F,CF]>[C,B,] [D,A,]2 [A,,F,]>[A,,F,] | [B,,F,]2 [B,,B,]>[B,,B,] [F,A,]2 [F,A,]2 | %7
 z4 .C2 z2 | C,2 [F,A,]>[F,B,D] [F,A,C]2 z2 | z4 z2 .C2 | [B,,B,]2 [F,A,F]>[F,A,F] [F,A,F]4 | %11
 [B,,B,]2 [B,,B,]>[B,,B,] [F,A,]2 [F,C]2 | z4 .C2 z2 | [F,A,F]2 [F,A,F]>[F,A,F] [F,CF]4 | %14
 [A,,F,][A,,F,][B,,F,][D,F,B,] [F,A,]2 z [F,A,] | [F,A,C]2 [F,A,C][F,A,C] [F,CF]<.[F,A,F] [F,CF]2 | %16
[M:3/4] [C,B,]2 [F,A,]>[F,B,D] [F,A,C]2 |] %17
V:3
 x8 | z4 z2 .B,2 | [B,,B,]2 [B,,B,]>[B,,F,B,] [F,A,]2 F,->[F,C] | x8 | %4
 [C,C]2 [C,G,]>[C,A,] [C,G,]2 z G, | x8 | x8 | [F,A,C]2 [F,A,C][F,A,C] .[F,F]-<.[F,A,F] C,2 | x8 | %9
 [F,A,F]2 [C,G,]>[C,B,] [F,A,F]2 [F,F]-[F,A,F] | x8 | x8 | [C,C]2 [C,G,]2 C,4 | x8 | x8 | x8 | %16
[M:3/4] x6 |] %17
V:4
 x8 | x8 | x8 | x8 | x8 | x8 | x8 | x8 | x8 | x8 | x8 | x8 | [EG]2 [Ec]2 z B,A,G, | x8 | x8 | x8 | %16
[M:3/4] x6 |] %17

